X: 3089
T: Mrs Mc KENZIE OF APPLECROSS
C: Joseph Lowe
Q:"Strathspey."
R: Strathspey.
%R:strathspey
B: James Kerr "Merry Melodies" v.3 p.11 #89
Z: 2016 John Chambers <jc:trillian.mit.edu>
N: Several note pairs have a dot afer the 16th note rather than the 8th; transcribed as short-long "snap" pair.
N: The 2nd strain has initial repeat but no final repeat; fixed by making it non-repeating.
M: C
L: 1/16
K: A
a2 |\
ve3uA dcBA vF3vAuE3uA | vd3uB dcBA G3B Ba3 |\
ec3 c3A vF3vAuE3uA | FA3 d3B cA3 A2 :|\
ug2 |\
a3e dcBA ce3 e3a | a3e dcBA bB3 B3g |
a3e dcBA ce3 e3c | d3c Be3 cA3 A3g |\
a3e dcBA ce3 e3g | a3ec3a bB3 B3g |\
(3a2g2a2 (3e2f2g2 (3a2e2d2 (3c2B2A2 |\
(3B2b2a2 (3g2f2g2 aA3 A2 |]

%%sep 1 1 500
%%sep 1 1 500

